images/printer.svg

<?xml version="1.0" encoding="UTF-8" standalone="no" ?>
<!DOCTYPE svg PUBLIC "-//W3C//DTD SVG 1.1//EN" "http://www.w3.org/Graphics/SVG/1.1/DTD/svg11.dtd">
<svg xmlns="http://www.w3.org/2000/svg" xmlns:xlink="http://www.w3.org/1999/xlink" version="1.1" width="300" height="300" viewBox="0 0 300 300" xml:space="preserve">
<desc>Created with Fabric.js 5.2.4</desc>
<defs>
</defs>
<rect x="0" y="0" width="100%" height="100%" fill="transparent"></rect>
<g transform="matrix(1 0 0 1 150 150)" id="64a89671-3e14-481d-9839-36eb8198f8e5"  >
<rect style="stroke: none; stroke-width: 1; stroke-dasharray: none; stroke-linecap: butt; stroke-dashoffset: 0; stroke-linejoin: miter; stroke-miterlimit: 4; fill: rgb(255,255,255); fill-opacity: 0; fill-rule: nonzero; opacity: 1;" vector-effect="non-scaling-stroke"  x="-150" y="-150" rx="0" ry="0" width="300" height="300" />
</g>
<g transform="matrix(0 0 0 0 0 0)" id="414eae44-fb64-4179-9461-03313e629470"  >
</g>
<g transform="matrix(5.57 0 0 5.57 150 150)"  >
<path style="stroke: none; stroke-width: 1; stroke-dasharray: none; stroke-linecap: butt; stroke-dashoffset: 0; stroke-linejoin: miter; stroke-miterlimit: 4; fill: rgb(255,255,255); fill-rule: nonzero; opacity: 1;" vector-effect="non-scaling-stroke"  transform=" translate(-24, -24)" d="M 44.364 15.515 L 37.333999999999996 15.515 L 37.333999999999996 0.727 C 37.333448251240384 0.3253272818185973 37.007673097129725 -3.789484995797565e-7 36.606 1.1102230246251565e-16 L 11.394 0 C 10.992326902870271 -3.789485023727586e-7 10.666551748759616 0.3253272818185954 10.666 0.7270000000000001 L 10.666 15.515 L 3.636 15.515 C 1.6286447425209736 15.517755392128644 0.0022033900391633665 17.144644060713993 -4.440892098500626e-16 19.152 L 0 36.606 C 0.002203390039164313 38.61335593928601 1.6286447425209718 40.24024460787136 3.6359999999999983 40.243 L 9.248 40.243 L 5.9 46.948 C 5.788380643653513 47.1725630198998 5.8001975663483245 47.438765315267695 5.931275724666841 47.65255480759495 C 6.062353882985358 47.866344299922204 6.294237632915872 47.99761969075871 6.545 48 L 41.454 48 C 41.706118607181914 47.99985164910033 41.94021253776955 47.869267606594995 42.072790132463844 47.65482181978534 C 42.205367727158134 47.44037603297568 42.21755301276575 47.172600605967034 42.105000000000004 46.947 L 38.752 40.247 L 44.364000000000004 40.247 C 46.37291587573274 40.244241255466484 48.00000189422263 38.61491776995447 48 36.606 L 48 19.152 C 47.99779660996084 17.144644060713993 46.371355257479024 15.517755392128638 44.364 15.515 Z M 12.121 1.455 L 35.879 1.455 L 35.879 15.516 L 12.121 15.516 Z M 40.277 46.546 L 7.722 46.546 L 11.843 38.305 L 36.156 38.305 Z M 12.121000000000002 36.846000000000004 L 12.121000000000002 32.729 C 12.122645338170845 31.525604894855825 13.096609936326455 30.549852385551695 14.299999999999999 30.546 L 33.7 30.546 C 34.90479004389443 30.5476536718632 35.88089835121104 31.524209324875184 35.882000000000005 32.729 L 35.882000000000005 36.85 Z M 46.545 36.602000000000004 C 46.543347493433615 37.80640016941253 45.56740016941252 38.78234749343362 44.363 38.784000000000006 L 38.024 38.784000000000006 L 37.333 37.401 L 37.333 32.729 C 37.330800842878126 30.722812846007677 35.70618351935905 29.09640678885411 33.7 29.092 L 14.3 29.092 C 12.292254207272297 29.094204499157247 10.665204499157248 30.721254207272295 10.663 32.729 L 10.663 37.405 L 9.972 38.788000000000004 L 3.635 38.788000000000004 C 2.430599830587478 38.78634749343362 1.4546525065663856 37.810400169412524 1.4529999999999998 36.606 L 1.4529999999999998 24.729 L 46.544 24.729 L 46.544 36.606 Z M 46.545 23.270000000000003 L 1.454 23.270000000000003 L 1.454 19.152 C 1.455651092412266 17.94743720592742 2.4314380888835343 16.971203011015977 3.636000000000001 16.969 L 44.364 16.969 C 45.56856191111646 16.971203011015977 46.54434890758773 17.94743720592742 46.546 19.152 L 46.546 23.274 Z" stroke-linecap="round" />
</g>
<g transform="matrix(8.5 0 0 8.5 241.1 128.6)"  >
<path style="stroke: none; stroke-width: 1; stroke-dasharray: none; stroke-linecap: butt; stroke-dashoffset: 0; stroke-linejoin: miter; stroke-miterlimit: 4; fill: rgb(255,255,255); fill-rule: nonzero; opacity: 1;" vector-effect="non-scaling-stroke"  transform=" translate(-30.57, -20.12)" d="M 31.756 19.394 L 29.393 19.394 C 29.001703168478617 19.408509900711927 28.691976841920457 19.729934235948356 28.691976841920457 20.121499999999997 C 28.691976841920457 20.51306576405164 29.001703168478617 20.834490099288068 29.393 20.848999999999997 L 31.756 20.848999999999997 C 32.14729683152139 20.834490099288068 32.457023158079544 20.51306576405164 32.457023158079544 20.121499999999997 C 32.457023158079544 19.729934235948356 32.14729683152139 19.408509900711927 31.756 19.394 Z" stroke-linecap="round" />
</g>
<g transform="matrix(8.5 0 0 8.5 204.16 128.94)"  >
<path style="stroke: none; stroke-width: 1; stroke-dasharray: none; stroke-linecap: butt; stroke-dashoffset: 0; stroke-linejoin: miter; stroke-miterlimit: 4; fill: rgb(255,255,255); fill-rule: nonzero; opacity: 1;" vector-effect="non-scaling-stroke"  transform=" translate(-30.57, -20.12)" d="M 31.756 19.394 L 29.393 19.394 C 29.001703168478617 19.408509900711927 28.691976841920457 19.729934235948356 28.691976841920457 20.121499999999997 C 28.691976841920457 20.51306576405164 29.001703168478617 20.834490099288068 29.393 20.848999999999997 L 31.756 20.848999999999997 C 32.14729683152139 20.834490099288068 32.457023158079544 20.51306576405164 32.457023158079544 20.121499999999997 C 32.457023158079544 19.729934235948356 32.14729683152139 19.408509900711927 31.756 19.394 Z" stroke-linecap="round" />
</g>
<g transform="matrix(8.5 0 0 8.5 166.57 128.58)"  >
<path style="stroke: none; stroke-width: 1; stroke-dasharray: none; stroke-linecap: butt; stroke-dashoffset: 0; stroke-linejoin: miter; stroke-miterlimit: 4; fill: rgb(255,255,255); fill-rule: nonzero; opacity: 1;" vector-effect="non-scaling-stroke"  transform=" translate(-30.57, -20.12)" d="M 31.756 19.394 L 29.393 19.394 C 29.001703168478617 19.408509900711927 28.691976841920457 19.729934235948356 28.691976841920457 20.121499999999997 C 28.691976841920457 20.51306576405164 29.001703168478617 20.834490099288068 29.393 20.848999999999997 L 31.756 20.848999999999997 C 32.14729683152139 20.834490099288068 32.457023158079544 20.51306576405164 32.457023158079544 20.121499999999997 C 32.457023158079544 19.729934235948356 32.14729683152139 19.408509900711927 31.756 19.394 Z" stroke-linecap="round" />
</g>
</svg>

<svg xmlns="http://www.w3.org/2000/svg" width="48" height="48.001" viewBox="0 0 48 48.001">
  <g>
    <path d="M44.364,15.515h-7.03V.727A.728.728,0,0,0,36.606,0H11.394a.728.728,0,0,0-.728.727V15.515H3.636A3.641,3.641,0,0,0,0,19.152V36.606a3.641,3.641,0,0,0,3.636,3.637H9.248L5.9,46.948A.728.728,0,0,0,6.545,48H41.454a.728.728,0,0,0,.651-1.053l-3.353-6.7h5.612A3.641,3.641,0,0,0,48,36.606V19.152A3.641,3.641,0,0,0,44.364,15.515ZM12.121,1.455H35.879V15.516H12.121ZM40.277,46.546H7.722l4.121-8.241H36.156Zm-28.156-9.7V32.729A2.186,2.186,0,0,1,14.3,30.546H33.7a2.185,2.185,0,0,1,2.182,2.183V36.85Zm34.424-.244a2.185,2.185,0,0,1-2.182,2.182H38.024l-.691-1.383V32.729A3.641,3.641,0,0,0,33.7,29.092H14.3a3.641,3.641,0,0,0-3.637,3.637v4.676l-.691,1.383H3.635a2.185,2.185,0,0,1-2.182-2.182V24.729H46.544V36.606Zm0-13.332H1.454V19.152a2.186,2.186,0,0,1,2.182-2.183H44.364a2.186,2.186,0,0,1,2.182,2.183v4.122Z" fill="#1a171b"/>
    <path d="M43.394,19.394H41.03a.728.728,0,0,0,0,1.455h2.364a.728.728,0,0,0,0-1.455Z" fill="#1a171b"/>
    <path d="M37.575,19.394H35.213a.728.728,0,1,0,0,1.455h2.362a.728.728,0,1,0,0-1.455Z" fill="#1a171b"/>
    <path d="M31.756,19.394H29.393a.728.728,0,0,0,0,1.455h2.363a.728.728,0,0,0,0-1.455Z" fill="#1a171b"/>
  </g>
</svg>
